X:1
T:Abbot’s Leigh, 87.87 D refrain
T:Cyril Vincent Taylor, 1941
T:Abbot’s Leigh, 87.87 D refrain
T:&amp;#169; 1942, renewed 1970, Hope Publishing Company
C:Cyril Vincent Taylor, 1941
Z:&#169; 1942, renewed 1970, Hope Publishing Company
%%score ( 1 2 ) ( 3 4 )
L:1/8
M:3/4
K:C
V:1 treble 
V:2 treble 
V:3 bass 
V:4 bass 
V:1
 (E2 C2) [B,E]2 | [A,C]4 [B,C]2 | [Cc]2 [GB]2 [FA]2 | [FA]2 [EG]4 | C2 E2 [CE]2 | D2 z G [B,A]2 | %6
 [CG]2 [DF]2 [CE]2 | (C2 B,4) | [CG]4 [B,E]2 | [A,C]4 [B,C]2 | [Cc]2 [GB]2 [FA]2 | [FA]2 [EG]4 | %12
 (C2 E2) [CE]2 | D2 z G [B,A]2 | [CG]2 [DF]2 [CE]2 | [B,D]6 | [_B,D]4 [B,E]2 | [DF]4 [FA]2 | %18
 F2 z A [E_B]2 | [G_B]2 (F2 E2) | [DG]4 [GA]2 | (B2 c2) [Fd]2 | (E2 F2) [DB]2 | [CA]6 | %24
 c2 G2 [B,E]2 | C4 C2 | (_B2 A2) [CG]2 | [EA]2 D2 G2 | (d2 c2) [FB]2 | (c2 G2) [CA]2 | C4 [B,D]2 | %31
 [G,C]6 |] %32
V:2
 G4 x2 | x6 | x6 | x6 | A4 x2 | F3 C2 x | x6 | D6 | x6 | x6 | x6 | x6 | A4 x2 | F3 C2 x | x6 | x6 | %16
 x6 | x6 | G3 D2 x | x2 A4 | x6 | F4 x2 | c4 x2 | x6 | C4 x2 | C4 C2 | F4 x2 | x2 A4 | F4 x2 | %29
 C4 x2 | C4 x2 | x6 |] %32
V:3
 (C,2 E,2) [G,,G,]2 | [A,,E,]4 [G,,E,]2 | [F,,A,]3 [G,,B,] ([A,,C][B,,D]) | [C,C]2 (C,2 B,,2) | %4
 [A,,E,]2 [C,A,]2 [A,,A,]2 | (A,3 G,) [D,F,]2 | [E,G,]2 [F,A,]2 [F,A,]2 | (G,4 F,2) | %8
 [E,G,]4 [G,,G,]2 | [A,,E,]4 [G,,E,]2 | [F,,A,]3 [G,,B,] ([A,,C][B,,D]) | [C,C]2 (C,2 B,,2) | %12
 [A,,E,]2 [C,A,]2 [A,,A,]2 | (A,3 G,) [D,F,]2 | [E,G,]2 [F,A,]2 [F,A,]2 | G,6 | %16
 (_B,,2 A,,2) [G,,G,]2 | (D,2 F,2) [D,D]2 | (_B,,2 G,,2) [C,C]2 | [F,C]2 [F,C]4 | %20
 (G,2 F,2) [E,C]2 | [D,D]2 [C,A,]2 [B,,A,]2 | (C,2 D,2) [E,^G,]2 | [A,,A,]6 | [E,G,]4 [G,,G,]2 | %25
 [A,,E,]4 [C,E,]2 | [D,F,]4 [E,C]2 | [G,A,]2 [F,A,]2 [E,^C]2 | (D2 A,2) [D,F,]2 | (G,2 C2) F,2 | %30
 (G,2 G,,2) [G,,F,]2 | [C,E,]6 |] %32
V:4
 G,4 x2 | x6 | x6 | x2 C4 | x6 | D,4 x2 | x6 | G,6 | x6 | x6 | x6 | x2 C4 | x6 | D,4 x2 | x6 | %15
 G,6 | F,4 x2 | A,4 x2 | D4 x2 | x6 | B,4 x2 | x6 | A,4 x2 | x6 | x6 | x6 | x6 | x6 | D,4 x2 | %29
 E,4 F,2 | E,4 x2 | x6 |] %32

